fs/mail_inbox_checkmark_20_filled.svg

<svg viewBox="0 0 20 20" fill="none" xmlns="http://www.w3.org/2000/svg" height="1em" width="1em">
  <path d="M18 5.5C18 7.98528 15.9853 10 13.5 10C11.0147 10 9 7.98528 9 5.5C9 3.01472 11.0147 1 13.5 1C15.9853 1 18 3.01472 18 5.5ZM15.1464 3.64645L12.5 6.29289L11.8536 5.64645C11.6583 5.45118 11.3417 5.45118 11.1464 5.64645C10.9512 5.84171 10.9512 6.15829 11.1464 6.35355L12.1464 7.35355C12.3417 7.54882 12.6583 7.54882 12.8536 7.35355L15.8536 4.35355C16.0488 4.15829 16.0488 3.84171 15.8536 3.64645C15.6583 3.45118 15.3417 3.45118 15.1464 3.64645ZM16 10.4003V11H12.5C12.2245 11 12.0011 11.2228 12 11.498L12 11.4991L11.9997 11.5114C11.9993 11.5238 11.9983 11.5443 11.9964 11.5718C11.9925 11.6269 11.9843 11.7088 11.9677 11.8084C11.9341 12.0101 11.8679 12.2713 11.7403 12.5264C11.6137 12.7796 11.4317 13.0176 11.168 13.1933C10.9074 13.3671 10.5375 13.5 10 13.5C9.46249 13.5 9.0926 13.3671 8.83204 13.1933C8.56834 13.0176 8.38631 12.7796 8.25971 12.5264C8.13214 12.2713 8.06586 12.0101 8.03226 11.8084C8.01565 11.7088 8.00755 11.6269 8.00361 11.5718C8.00165 11.5443 8.00075 11.5238 8.00033 11.5114L8.00001 11.4991C7.99968 11.2233 7.77594 11 7.5 11H4V7C4 5.89543 4.89543 5 6 5H8.02242C8.05337 4.65659 8.11588 4.32228 8.20703 4H6C4.34315 4 3 5.34315 3 7V15C3 16.6569 4.34315 18 6 18H14C15.6569 18 17 16.6569 17 15V9.74284C16.6929 9.99647 16.3578 10.2174 16 10.4003Z" fill="#212121"/>
</svg>

<svg viewBox="0 0 20 20" fill="none" xmlns="http://www.w3.org/2000/svg" height="1em" width="1em">
  <path d="M18 5.5a4.5 4.5 0 1 1-9 0 4.5 4.5 0 0 1 9 0Zm-2.854-1.854L12.5 6.293l-.646-.647a.5.5 0 0 0-.708.708l1 1a.5.5 0 0 0 .708 0l3-3a.5.5 0 0 0-.708-.708ZM16 10.4v.6h-3.5a.5.5 0 0 0-.5.498v.013l-.004.06a2.57 2.57 0 0 1-.256.955 1.694 1.694 0 0 1-.572.667c-.26.174-.63.307-1.168.307-.538 0-.907-.133-1.168-.307a1.694 1.694 0 0 1-.572-.667A2.572 2.572 0 0 1 8 11.511V11.5a.5.5 0 0 0-.5-.5H4V7a2 2 0 0 1 2-2h2.022a5.48 5.48 0 0 1 .185-1H6a3 3 0 0 0-3 3v8a3 3 0 0 0 3 3h8a3 3 0 0 0 3-3V9.743a5.507 5.507 0 0 1-1 .657Z" fill="#212121"/>
</svg>
